src/components/Onboarding/Deployment/assets/flower.svg

<svg width="61" height="62" viewBox="0 0 61 62" fill="none" xmlns="http://www.w3.org/2000/svg">
<path d="M52.1989 35.5679C51.9544 35.4952 51.71 35.4424 51.4655 35.3895L31.8611 30.5463L51.4655 25.7096C54.1211 25.134 56.5413 23.7708 58.4099 21.798C59.4926 20.6609 60.3691 19.344 61 17.9062C59.4316 17.2921 57.7618 16.9783 56.0775 16.9812C53.7388 16.9766 51.4391 17.58 49.404 18.7321L48.7432 19.122L31.4647 29.5618L41.8979 12.2766C43.3692 9.99352 44.1197 7.32066 44.0519 4.6054C44.0083 3.03734 43.6954 1.48844 43.1269 0.0264254C41.5816 0.695996 40.1779 1.65349 38.9906 2.84781C37.333 4.49391 36.1329 6.54346 35.5085 8.79452C35.4424 9.039 35.3763 9.28347 35.3168 9.52795L30.4802 29.1323L25.6436 9.52795C25.0702 6.87299 23.7092 4.45274 21.7385 2.58351C21.5932 2.43814 21.4412 2.306 21.2958 2.17385L21.1042 2.02848C21.0989 2.01503 21.0909 2.00281 21.0806 1.99258C21.0704 1.98235 21.0582 1.97434 21.0447 1.96902C20.8795 1.82366 20.7012 1.69151 20.5228 1.55936C20.471 1.51339 20.4158 1.47142 20.3576 1.43382C20.2185 1.32578 20.0729 1.22648 19.9215 1.13648L19.6903 0.977901C19.644 0.977901 19.5845 0.925038 19.5448 0.892001C19.3333 0.747842 19.1126 0.617622 18.8841 0.502163C18.7731 0.436031 18.6585 0.376459 18.5406 0.323759C18.3265 0.203648 18.1059 0.0955651 17.8798 0C17.2758 1.56854 16.9667 3.23513 16.968 4.91594C16.9632 7.25673 17.5665 9.55862 18.7189 11.5961C18.851 11.8075 18.9766 12.0322 19.1088 12.2568L29.5551 29.5419L12.2766 19.1021C9.98867 17.6314 7.3111 16.8832 4.59215 16.9547C3.0213 16.9926 1.46931 17.3057 0.00661391 17.8798C0.686768 19.4224 1.64802 20.825 2.84124 22.016C4.48828 23.671 6.53769 24.8687 8.78795 25.4916C9.03242 25.5576 9.27689 25.6237 9.52137 25.67L29.1256 30.5198L9.53459 35.3631C6.87805 35.9284 4.45614 37.288 2.59015 39.2615C1.49993 40.3976 0.622598 41.7202 0 43.1665C1.56821 43.7717 3.23499 44.0808 4.91591 44.0783C7.2567 44.0831 9.55866 43.4798 11.5961 42.3274C11.8208 42.2018 12.0322 42.0763 12.2569 41.9375L29.5485 31.4977L19.1154 48.7828C17.6406 51.0668 16.8898 53.7429 16.9614 56.4607C17.0057 58.0308 17.3185 59.5818 17.8863 61.0463C19.4076 60.3704 20.7917 59.4208 21.9698 58.2447C23.6174 56.5909 24.8159 54.5441 25.4519 52.298C25.518 52.0535 25.5709 51.8091 25.6303 51.5646L30.467 31.9537L35.3037 51.5514C35.8833 54.2088 37.2484 56.6306 39.2219 58.5024C40.3586 59.5838 41.6757 60.4582 43.1137 61.0859C43.7289 59.5202 44.0428 57.8523 44.0387 56.17C44.0453 53.8272 43.437 51.5238 42.2745 49.4898C42.1556 49.2784 42.0168 49.0604 41.8847 48.8291L31.4515 31.5374L48.73 41.9772C51.014 43.4457 53.6867 44.1939 56.4012 44.1246C57.9719 44.0848 59.5236 43.7718 60.9869 43.1995C60.3108 41.6579 59.3541 40.2553 58.1655 39.0633C56.5097 37.4052 54.4549 36.2014 52.1989 35.5679Z" fill="white"/>
</svg>

<svg width="61" height="62" fill="none" xmlns="http://www.w3.org/2000/svg"><path d="M52.199 35.568c-.245-.073-.489-.126-.733-.178L31.86 30.545l19.604-4.836a13.505 13.505 0 006.945-3.912A13.525 13.525 0 0061 17.906a13.438 13.438 0 00-4.922-.925 13.492 13.492 0 00-6.674 1.751l-.66.39-17.28 10.44 10.434-17.285a13.538 13.538 0 002.154-7.672 13.684 13.684 0 00-.925-4.579 13.274 13.274 0 00-4.136 2.822 13.446 13.446 0 00-3.483 5.947c-.066.244-.132.488-.191.733L30.48 29.132 25.644 9.528a13.5 13.5 0 00-3.905-6.944c-.146-.146-.298-.278-.443-.41l-.192-.146a.105.105 0 00-.06-.059 7.917 7.917 0 00-.521-.41 1.364 1.364 0 00-.165-.125 4.257 4.257 0 00-.436-.298L19.69.978c-.046 0-.106-.053-.145-.086a5.887 5.887 0 00-.66-.39 3.31 3.31 0 00-.344-.178A6.611 6.611 0 0017.88 0a13.65 13.65 0 00-.912 4.916 13.513 13.513 0 001.75 6.68c.133.211.259.436.39.66l10.447 17.286-17.278-10.44a13.552 13.552 0 00-7.685-2.147c-1.57.038-3.123.35-4.585.925a13.591 13.591 0 002.834 4.136 13.453 13.453 0 005.947 3.476c.244.066.489.132.733.178l19.605 4.85-19.591 4.843a13.394 13.394 0 00-6.945 3.898A13.149 13.149 0 000 43.166c1.568.606 3.235.915 4.916.912 2.34.005 4.643-.598 6.68-1.75.225-.126.436-.252.66-.39l17.293-10.44-10.434 17.285a13.499 13.499 0 00-2.154 7.678c.045 1.57.358 3.12.925 4.585a13.59 13.59 0 004.084-2.801 13.723 13.723 0 003.482-5.947c.066-.245.119-.489.178-.733l4.837-19.611 4.837 19.597a13.564 13.564 0 007.81 9.535c.615-1.566.929-3.234.925-4.916a13.386 13.386 0 00-1.764-6.68c-.12-.212-.258-.43-.39-.66L31.452 31.536l17.278 10.44A13.545 13.545 0 0060.987 43.2a13.586 13.586 0 00-2.822-4.137 13.646 13.646 0 00-5.966-3.495z" fill="#fff"/></svg>
